#TITLE Quasar
#ALBUM Final Fantasy VI
#COMPOSER Minoru Akao
#ARRANGED N/A

{1}
l16o7p0,1,188@0%e1[6c48m250]o5m24,+10m0,6,255d8m8,+58^6m255,-2^2^4  
m0,+3^2
;

l16

{2}
l16o4@3p0,3,112[20c64m1]v127o1%a2%e1m255,+2d1  %r15^3
;

l16