#TITLE Fenrir
#ALBUM Final Fantasy VI
#COMPOSER Minoru Akao
#ARRANGED N/A

{1}
l16v0%n1%c16c2^6%c28c2  &108^3%c23^3v0,1,191v36,84^4
;

l16

{2}
l16v80%p1o4p0,16,200m52,-45%e1%a6b4%e0%ym92,-45f2%e1@3o3m12,+20c12o5m164,-21%a11%r17e2  
o0@5m68,+72&124e2m95,-33^3
;

l16