#TITLE Shiva
#ALBUM Final Fantasy VI
#COMPOSER Minoru Akao
#ARRANGED N/A

{1}
l16o7%e1p0,20,84m255,+1@2%a4e1  v0,4,191&132v96,127p0,10,84^2
;

l16

{2}
l16r4o1m104,+32c3m72,+49^3o10@2%e1m136,+36%r14f1  
;

l16