#TITLE Ifrit
#ALBUM Final Fantasy VI
#COMPOSER Minoru Akao
#ARRANGED N/A

{1}
l16m128,+98p0,0,251o8v0,44,191v44,127%a5c+1  &176%r15^2
;

l16

{2}
l16@2%e1o0v96,127p0,0,1[3%a5v0,1,191m120,-122d+8.]@7o2%r10c1  

;

l16