#TITLE Alexandr (Part 1)
#ALBUM Final Fantasy VI
#COMPOSER Minoru Akao
#ARRANGED N/A

{1}
l16v43p0,2,91%a4%n1%c15&161c2r6
;

l16

{2}
l16v0v60,127p0,1,99>%p1@2&161c2p0,1,96v0,1,191@2o5%a6c8m240,+56c3
;

l16