#TITLE Pearl
#ALBUM Final Fantasy VI
#COMPOSER Minoru Akao
#ARRANGED N/A

{1}
l16%e1@0o5%a5m46,-63d6@2o3p0,0,77v0,37,191m94,+51d1  ^1  
;

l16

{2}
l16%e1@3o8%a7m148,+9f+4.[9a+12a+32]@7[3p0,0,100c32r24]v127pm60,+23%r12c1  

;

l16