#TITLE Bahamut
#ALBUM Final Fantasy VI
#COMPOSER Minoru Akao
#ARRANGED N/A

{1}
l16%e1o5@0m72,-27v0,2,191%a9c24m36,+64^6%e0r4.%n1%c20p0,16,96%y[52c32]
;

l16

{2}
l16%p1o4p0,16,96m2,-10%a6am32,+12v62,86^24o5m67,-13a+8%p0%ym3,-50c24%e1[2[10m9,+25^32m45,-22^12]v255,0]
;

l16