#TITLE Dispel
#ALBUM Final Fantasy VI
#COMPOSER Minoru Akao
#ARRANGED N/A

{1}
l16o5m8,-17c12m24,+56^8m143,-13v0,1,191^4.%e1o6%r18f+1  
;

l16

{2}
l16o2%p1@5m32,+37c6%e1o3p0,14,127v127m52,-2%a12%r16c3o7f+4
;

l16