#TITLE Soul Out (Part 1)
#ALBUM Final Fantasy VI
#COMPOSER Minoru Akao
#ARRANGED N/A

{1}
l16v87@3%e1p0,20,168v0,1,191m255,+1%a11a+3%r18m255,+16^3
;

l16

{2}
l16o10v9,12v0,2,191%a14e24v84,127%e1^3p0,20,108%r18^4.
;

l16