#TITLE Opening Theme #1
#ALBUM Final Fantasy VI
#COMPOSER Nobuo Uematsu
#ARRANGED M.Akao

{1}
l16%x160%b0,100%f0,0%v50|0p64%e1t40v60v192,70r1  v192,80r1  
v192,90r2o6f2  v100p40t90<e4t50d+2^4  t130r1  t70e4t30d+2^4  
t50%b0,50%f0,2%v50v80|3p64%e1o6v20v192,30t50b24t55^24t60^24t65^24t70^24t75^24t80b4b4t75b24t70^24t65^24t60^24t55^24t25^24  
<v192,40t50c24t55^24t60^24t65^24t70^24t75^24t80c4c4t75c24t70^24t65^24t60^24t55^24t25^24  
>v192,50t50b24t55^24t60^24t65^24t70^24t75^24t80b4b4t75b24t70^24t65^24t60^24t55^24t25^24  
<v192,60t50c24t55^24t60^24t65^24t70^24t75^24t80c4c4t75c24t70^24t65^24t60^24t55^24t25^24  
v192,70t50d24t55^24t60^24t65^24t70^24t75^24t80d4d4d4  v192,80d4d4d4t75d24t70^24t65^24t60^24t55^24t25^24  
t50d24t55^24t60^24t65^24t70^24t75^24t80d4d4d4  d4d4d4t79d24t78^24t77^24t76^24t75^24t74^24  
t80d4d4d4d4  c4c4c4c4  >b4b4b4t78b24t74^24t62^24t44^24t44^24t10^24  
t40gt50^t55^t60^t65^t65gt60^t40^t40^2  
;

l16
{2}
l16|0p64%e1v60v192,70r1  
v192,80r1  v192,90o6c1  v100p50<c4>b2^4  r1  
<c4>b2^4  |3p64%e1v20v192,30r24o6e6e6e6e6e6e8  v192,40^24f+6f+6f+6f+6f+6f+8  
v192,50^24e6e6e6e6e6e8  v192,60^24f+6f+6f+6f+6f+6f+8  v192,70^24g6g6g6g6g6g8  
v192,80^24f+6f+6f+6f+6f+6f+8  ^24g6g6g6g6g6g8  ^24f+6f+6f+6f+6f+6f+8  
^24f6f6f6f6f6f8  ^24e6e6e6e6e6e8  ^24d6d6d6d6d6d8  ^d2^4.^  

;

l16
{3}
l16|0p64%e1v60v192,70r1  v192,80r2o5g2  v192,90^1  v100p60<g+4g+2^4  
r1  g+4g+2^4  |3p64%e1v20v192,30r12o6a4a4a4a6  v192,40^12a+4a+4a+4a+6  
v192,50^12a4a4a4a6  v192,60^12a+4a+4a+4a+6  v192,70^12<c4c4c4c6  
v192,80^12c4c4c4c6  ^12c4c4c4c6  ^12c4c4c4c6  ^12c4c4c4c6  
^12>b4b4b4b6  ^12a4a4a4a6  ^8f2^4.  
;

l16
{4}
l16|0p64%e1v60v192,70r1  
v192,80o5d1  v192,90^1  v100p70<f4f2^4  r1  
f4f2^4  |3p64%e1v20v192,30r8o6g6g6g6g6g6g24  v192,40^8g+6g+6g+6g+6g+6g+24  
v192,50^8g6g6g6g6g6g24  v192,60^8g+6g+6g+6g+6g+6g+24  v192,70^8a+6a+6a+6a+6a+6a+24  
v192,80^8a6a6a6a6a6a24  ^8a+6a+6a+6a+6a+6a+24  ^8a6a6a6a6a6a24  
^8g+6g+6g+6g+6g+6g+24  ^8g6g6g6g6g6g24  ^8f6f6f6f6f6f24  ^8.a2^4^  

;

l16
{5}
l16|0p64%e1v60v192,70r2o4a2  v192,80^1  v192,90^1  v100p80f4f2^4  
r1  f4f2^4  |3p64%e1v20v192,30r6o7c+4c+4c+4c+12  v192,40^6d+4d+4d+4d+12  
v192,50^6c+4c+4c+4c+12  v192,60^6d+4d+4d+4d+12  v192,70^6e4e4e4e12  
v192,80^6e4e4e4e12  ^6e4e4e4e12  ^6e4e4e4e12  ^6d+4d+4d+4d+12  
^6d4d4d4d12  ^6c4c4c4c12  ^4>b2^4  
;

l16
{6}
l16|0p64%e1v60v192,70o4e1  
v192,80^1  v192,90^1  v100p90>f4f2^4  r1  
f4f2^4  v80|3p64%e1r1  r1  r1  
r1  r1  r1  r1  
r1  r1  r1  r1  
r4.o7d2^8  
;

l16
{7}
l16v90|1p40%e1%a10r1  r1  r1  
o5%l1e4d+2^4  r1  %l1e4d+2^4  v80|3p64%e1r1  
r1  r1  r1  r1  
r1  r1  r1  r1  
r1  r1  r4.ro7f2^  
;

l16
{8}
l16v90|2p80%e1%a10r1  
r1  r1  o7%l1c4>b2^4  r1  
<%l1c4>b2^4  v80|3p64%e1r1  r1  r1  
r1  r1  r1  r1  
r1  r1  r1  r1  
r2o7g2  
;

l16