#TITLE Slam Shuffle
#ALBUM Final Fantasy VI
#COMPOSER Nobuo Uematsu
#ARRANGED M.Akao

{1}
l16t115%b0,100%f0,0%x165r1  r1  %v50v60@1p40%e1m48,18,239%r20o4[8e12r12e12r4] $1 v60o4[16e12r12e12r4  
][8g12r12g12r4][8e12r12e12r4  ]v80[2b12r12b12<a6g12g+6e12r6e12  
a6g12g+6e12r6e12r6e12  >]<e12r12e12<d6c12c+6>a12r6a12  <d6c12c+6>a12r6a12r6a12  
e12r12e12<d6c12c+6>a12r6a12  <a12g12e12d+12d12c+12c2  ^2r4c12>b12a+12  
a1  r1  
;1

l16
{2}
l16r1  r1  
v60@1p40%e1m48,18,239%r20[4o3a12r12a12<c6>b12a12r12a12<d+6e12  ] $2 v60[8o3a12r12a12<c6>b12a12r12a12<d+6e12  
][4c12r12c12d+6d12c12r12c12f+6g12  ][4>a12r12a12<c6>b12a12r12a12<d+6e12  
]v80e12r12e12<f+6r12d6r3  f+6r12d6r2r12  >e12r12e12<f+6r12d6r3  
f+6r12d6r2r12  >a12r12a12<b6r12g6r3  b6r12g6r2r12  >a12r12a12<b6r12g6r3  
a12g12e12d+12d12c+12c2  ^2r4c12>b12a+12  a1  r1  

;2

l16
{3}
l16r1  r1  v40@3p90%e1m48,18,239r1  r1  
o4[8a8m8,+3^24^12] $3 o4[32a8m8,+3^24^12]<[16c8m8,+3^24^12]>[16a8m8,+3^24^12  
][16b8m8,+3^24^12]<[12e8m8,+3^24^12]r1  r1  >[8a8m8,+3^24^12]
;3

l16
{4}
l16r1  
r1  v120@6p64%e0m24,64,239r1  r1  o1a12r3%l1g+12a12r3%l1g+12  
a12r12%l1g+12a12r12%l1g+12a12r4.r24   $4 [4a12r3%l1g+12a12r3%l1g+12  
a12r12%l1g+12a12r12%l1g+12a12r4.r24  ]<[2c12r3>%l1b12<c12r3>%l1b12  
<c12r12>%l1b12<c12r12>%l1b12<c12r4.r24  ]>[2a12r3%l1g+12a12r3%l1g+12  
a12r12%l1g+12a12r12%l1g+12a12r4.r24  ]%r20e12r12e12e12r12e12e12r12e12e12r12e12  
e12r12e12e12r12e12e12r12e12<e6>d+12  e12r12e12e12r12e12e12r12e12e12r12e12  
e12r12e12e12r12e12e12r12e12e12f+12g+12  a12r12a12a12r12a12a12r12a12a12r12a12  
a12r12a12a12r12a12a12r12a12<g6>g+12  a12r12a12a12r12a12a12r12a12a12r12a12  
<a12g12e12d+12d12c+12c2  ^2^4c12>b12a+12  %r0a12r3%l1g+12a12r3%l1g+12  
a12r12%l1g+12a12r12%l1g+12a12r4.r24  
;4

l16
{5}
l16r1  r1  v80@2p64%e1m48,18,239r1  
r1  r1  r1   $5 o5a12r6<a12r6d+4^6e12  
f+6e12f+6g12f+6e12d+12c12>b12  a12r3<d+12e12r3>g+12  a12r12b12<c12r12d+12e12^4.r24  
>a12r6<a12r6d+4^6e12  f+6e12f+6g12f+6e12d+12c12>b12  a12r3b12<c12r3>g+12  
a12r12b12<c12r12>b12a12^4.r24  <c12r6<c12r6>f+4^6g12  a6g12a6a+12a6g12f+12d+12d12  
c12r3f+12g12r3>b12  <c12r12d12d+12r12f+12g12^4.r24  >a12r6<a12r6d+4^6e12  
f+6e12f+6g12f+6e12d+12c12>b12  a12r3b12<c12r3>g+12  a12r12b12<c12r12>b12a12^4.r24  
r1  r1  r1  r1  
r1  r1  r1  r1  
r1  r1  r1  
;5

l16
{6}
l16p64v30@7o10v20,255,255%a4%l1c64 $6 c64
;6

l16
{7}
l16p64v25r64%e1@7v0,180,201o18p0,255,60%p1%a4%l1c64 $7 c64
;7

l16
{8}
l16r1  
r1  p75r1  r1  r1  
r1   $8 @4[46v80o6%r30a12r12a12v120o3%r20a4]r2  [6v80o6%r30a12r12a12]%p1%e1@5%io5v125%s0%r26[2r4m7,+32c4r4  
m6,+31g4]%e0%p0
;8

l16