#TITLE Phoenix
#ALBUM Final Fantasy VI
#COMPOSER Minoru Akao
#ARRANGED N/A

{1}
l16o1m55,+64v0,1,191@0c4.m239,+5^2%e1p0,0,112o7f+m239,-34b2  
%r20^8.
;

l16

{2}
l16o6@0m255,+21p0,10,92%e1%p1%y0%s4c1  v119,0^2
;

l16