#TITLE Enemy Cut in Half
#ALBUM Final Fantasy VI
#COMPOSER Minoru Akao
#ARRANGED N/A

{1}
l16&18r12%e1o7@2p0,14,124%r18f1  
;

l16

{2}
l16v18%e1p0,27,184m16,+47o4%a8c24%e0v6,127m9,-90^%y%p1o10%r21f+2
;

l16