#TITLE Starlet
#ALBUM Final Fantasy VI
#COMPOSER Minoru Akao
#ARRANGED N/A

{1}
l16%e1%a4o16m5,+20v0,12,163b3^3%r15^1  
;

l16

{2}
l16@2o8%a3v0v18,127%e1m37,+6%r25f6@6o1m2,-70p0,8,107m0,3,130%a4%r10c1  

;

l16