#TITLE Crusader
#ALBUM Final Fantasy VI
#COMPOSER Minoru Akao
#ARRANGED N/A

{1}
l16%e1p0,64,84c2v0%n1%c18%s4c2  v40,103c2%r16&169^1  v40,127%a5b1  

;

l16

{2}
l16%p1m92,+36c2@0o8[2m96,-60c2  m180]v0,5,191&169b1  
;

l16