#TITLE Rage/Inviz Edge
#ALBUM Final Fantasy VI
#COMPOSER Minoru Akao
#ARRANGED N/A

{1}
l16%e1[22%c31%n1%a4%r29c24%a7%r29%c27c32]
;

l16

{2}
l16@7%e1v0,5,191o5%a2%r12m69,+33c2m96,-4^3m33,+48^2  m42,-7^4
;

l16