#TITLE Meteor
#ALBUM Final Fantasy VI
#COMPOSER Minoru Akao
#ARRANGED N/A

{1}
l16%e1r4%n1%a9p0,28,91%c26[3cr32[8c&10]]
;

l16

{2}
l16v127@3o5p0,10,120%e1m4,-19c24m36,+7^6m255,+4&255^1  %r14^2
;

l16