#TITLE X-Zone
#ALBUM Final Fantasy VI
#COMPOSER Minoru Akao
#ARRANGED N/A

{1}
l16@5o4m3,+108%e1v171,0[28a32c64m4]
;

l16

{2}
l16%e1%n1%c26%r22c12%n0@5o12v0,1,191m3,-14%a6c12m129,-18^2m113,-6%r14^2  

;

l16