#TITLE Terrato
#ALBUM Final Fantasy VI
#COMPOSER Minoru Akao
#ARRANGED N/A

{1}
l16%c21%n1v48,119v0,3,191%a5&114f2%n0m4,+23%e1^o5m28,+116%a15c1  
%r28^
;

l16

{2}
l16v127@3%e1v0,29,191m44,+4%a2g2m42,+3^1  m8,-3%r24^3
;

l16