#TITLE Ultima
#ALBUM Final Fantasy VI
#COMPOSER Minoru Akao
#ARRANGED N/A

{1}
l16v100@3o5v0,1,191m64,-34%a4f+4.%e1m0,21,191m255,+23^2p0,1,48^2  
p0,2,94^3p0,5,124m255,+13^2
;

l16

{2}
l16v100@5%p1p0,1,127m32,-17%a5%r24c1  %a0o6&232a1  
;

l16