#TITLE H-Bomb (Part 1)
#ALBUM Final Fantasy VI
#COMPOSER Minoru Akao
#ARRANGED N/A

{1}
l16%e1%c19%n1%a10%r22c6%n0o5v7,127v0,1,191m255,+1%a8%r13&223c1  

;

l16

{2}
l16@2v127%e1o6%a4v0,2,254%r20m13,+12b2@7v120,127m48,+40o7%a2g1  
%r15^1  
;

l16