#TITLE Scan
#ALBUM Final Fantasy VI
#COMPOSER Minoru Akao
#ARRANGED N/A

{1}
l16v37o0@2p0,5,127m31,+87c4m255,+2^2%r22m51,-76^4  
;

l16

{2}
l16o10@6[7f+32]v127v0,1,191m47,+1f4v3,15^64v92,127^4
;

l16