#TITLE Johnny C. Bad
#ALBUM Final Fantasy VI
#COMPOSER Nobuo Uematsu
#ARRANGED M.Akao

{1}
l16t110%x208%b0,0%f0,0%v40|0p80%e1r1  r4 $3 v70o6[2[2g+12e24a12e24g+12e12r24e24g+e48d48>b48<a12g+12  
r24e12r24e24]a12e24b12e24a12e12r24e24ag48e48c+48b12a12  r24e12r24e24g+12e24a12e24g+12e12r24e24g+e48d48>b48<a12g+12  
r24e12r24e24j2,1 a8b8a8r8c+12e24f+12g8  g24f+24e24c+24e12>b24<d12d+24e12a8g24b8a8g+8  
f+8] $1 [12a24][12g24]<d8c+8>b8<c+8>b8a12g+24r4  r1  r1  r1  
r1  r1  r1  r1  
r1  r1  r1  r1  
r1  v50[2g+12e24a12e24g+12e12r24e24g+12e24a12g+12r24e12r24e24  ][2a12e24b12e24a12e12r24e24a12e24b12a12r24e12r24e24  
g+12e24a12e24g+12e12r24e24g+12e24a12g+12r24e12r24e24  a12f+24b12f+24a12f+12r24f+24g12e24a12g12r24e12r24e24  
g+12e24a12e24g+12e12r24e24g+12e24a12g+12r24e12r24e24  j2,2 r1  r1  
] $2 
;3

l16
{2}
l16|0p80%e1r1  r4 $6 v70o5[2[2b8<c+8>b8r8b8<c+12>b24  
r4]<c+8d8c+8r8c+8d12c+24  r4>b8<c+8>b8r8b8<c+12>b24  r4j2,4 <d+12e24f12f+24d+12>b24r12b24r8<c12c+8  
c+24r8r3c+6>b8<c+8d8  d+8>] $4 <[12d+24][12c+24]b12e24a12e24g+12e24a12e24g+12e24f+12e24r4  
r1  r1  r1  r1  
r1  r1  r1  r1  
r1  r1  r1  r1  
v50>b12r24<c+12r24>b12r6b12r24<c+12>b24r4  b12r24<c+12r24>b12r6b12r24<c+12d24r4  
[2c+12r24d12r24c+12r6c+12r24d12c+24r4  >b12r24<c+12r24>b12r6b12r24<c+12>b24r4  
<d+12r24d12r24d+12r6c+12r24c12c+24r4  >b12r24<c+12r24>b12r6b12r24<c+12>b24r4  
j2,5 r1  r1  <] $5 
;6

l16
{3}
l16|1p50%e1r1  r4 $9 v90o5[2r8d8c+12d24r8d8d8  
c+12d24r8r8d8c+12d24r8d8c+12d24  r4r8c+8c12c+24r8c+8c+8  c12c+24r8r8d8c+12d24r8d8c+12d24  
r4r8d+8d12d+24r8c+8c+8  c12c+24r8j2,7 r8d8c+12d24r8d8c+12d24  r4] $7 r8d8c+12d24r8d8c+12d24  
r12>v100b24<c+12>b24[2[4<e8r2r8.  r48>b24<c+12>b24]j2,8 <d+8r4.e8r8.  
r48>b24<c+12>b24<e8r2r8.  r48>b24<c+12>b24] $8 <d+8r4.e8r8.  r48>b24<c+12>b24<e8r2r4.  
v124r12e24e24r12d12d24r8e8r12d8d12r12  r12e24e24r12d12d24r8e8r12d8d12r12  
c+12e24f+12e24g12f+24e12c+24e12f+24e12c+8f+24e12c+24  e8d8>a+12b24a12g24a+12a24g12e4^24  
b24b24b24<c+12>b24<d12c+24>b12g+24a24a24a24b12a24<c12>b24a12f+24  
%l1g12g+24%l0<e12>%l1g+24a12%l0<f+24>%l1a+12b24%l0<g+12>b24<f+12e4^24  
v100ererer8r48e8e8e24e12e24e12e24  ererer8r48e8e12f12f+12g12g+12  
v120a12g24e12g24a24^24m8,+2^24m8,-2^24^24g24a24^24m8,+2^24<d12>b24a12g24e12g24  
e12d24>b24a+24a24g12e24r8.r48<d24d8c+12>b24r8  <f12f+24b12f24f+12b24f12f+24a12d+24e12a24d+12e24a12g24  
r12g+24g+8a12a8a24g+12r24a12g+24r12g+6  
;9

l16
{4}
l16v100|1p50%e1r1  
r4 $10 o4v90[2r8b8a+12b24r8b8b8  a+12b24r8r8b8a+12b24r8b8a+12b24  
r4r8a8g+12a24r8a8a8  g+12a24r8r8b8a+12b24r8b8a+12b24  r4r8b8a+12b24r8a8a8  
g+12a24r8r8b8a+12b24r8b8a+12b24  r4]<v100[2d8r2r4.  d8r2r4.  c+8r2r4.  
d8r2r4.  >b8r4.<c+8r4.  d8r2r4.  ]>e12b24b24r24b24b12b24r12b24b8b12b8b12r24b24  
e12b24b24r24b24b12b24r12b24b8b12b8b12r24b24  r1  r1  r1  
r1  <drdrdr8r48d8d8d24d12d24d12d24  drdrdr8r48d8d12d+12e12f12f+12  
r2r8<d12r4r24  r2r12>>b24b8a12g+24r8  r1  r12<e24e8e12e8e24e12r24e12e24r12e6  

;10

l16
{5}
l16v100|1p50%e1r1  r4 $11 o4v90[2r8g+8g12g+24r8g+8g+8  
g12g+24r8r8g+8g12g+24r8g+8g12g+24  r4r8g8f+12g24r8g8g8  f+12g24r8r8g+8g12g+24r8g+8g12g+24  
r4r8a8g+12a24r8g8g8  f+12g24r8r8g+8g12g+24r8g+8g12g+24  r4]v100[2g+8r2r4.  
g+8r2r4.  g8r2r4.  g+8r2r4.  a8r4.g8r4.  
g+8r2r4.  ]r1  r1  r1  
r1  r1  r1  g+rg+rg+r8r48g+8g+8g+24g+12g+24g+12g+24  
g+rg+rg+r8r48g+8g+12a12a+12b12<c12  r1  r1  r1  
r1  
;11

l16
{6}
l16v120|2p70%e1r1  r4 $12 o5[2e8g+8b8<c+8d8c+8  
>b8g+8e8g+8b8<c+8d8c+8  >b8g+8a8<c+8e8f+8g8f+8  e8c+8>e8g+8b8<c+8d8c+8  
>b8g+8b8<d+8f+8g+8>a8<c+8  e8f+8>e8g+8a8a+8b8a8  g+8f+8]e8r2r4.  
e8r2r4.  a8r2r4.  e8r2r4.  b8r4.a8r4.  
e8r2r4.  e8b8<e8d+12d8d24>b8g+8f+8  e8f+8g+8e8<e8>g8g+8b8  a8c+8d8d+8e8f8f+8g8  
g+8e8b8g8g+8<e8>a8a+8  b8a+8a8g+8g8f+8f8d+8  e8g+8b8<c+12>b24e8g+8b8<c+12>b24  
e8g+8b8<c+8d8c+8>b8g+8  e8g+8b8<c+8d8c+8>b8g+8  a8<c+8e8f+8g8f+8e8c+8  
>e8g+8b8<c+8d8c+8>b8g+8  b8<d+8f+8g+8>a8<c+8e8f+8  >e8g+8a8a+8b8a8g+8f+8  
ererer8r48e8e8e24e12e24e12e24  ererer8r48e8e12f12f+12g12g+12  a8<c+8e8f+8g8f+8e8c+8  
>e8g+8b8<c+8d8c+8>b8g+8  b8<d+8f+8g+8>a8<c+8e8f+8  >e8g+8a8a+8b8a8g+8f+8  

;12

l16
{7}
l16v60|3p60%e1r12o5v100f24f24^24f24v50f8v100f12v50f8f24v100f12v50f24f12f24v100f12v50f24  
v48,100f24f24f24f24f24f24 $13 [12v50f8v100f12v50f8f24v100f12v50f24f12f24v100f12v50f8  
f24v100f12v50f24]v50f8v100f12v50f8f24v100f12v50f24v100f24v50f24f24v100f12v50f8  
f24v100f12v50f24v100f8f8f24f24v50f24v100f12v50f24v100f24^24v100f24f24v80f24v60f24v40f24v20f24  
v40f24v60f24v80f24v100f24v100f24f24v50f24v100f12v50f24f24^24f24v100f12v50f24f24^24v100f8v50f24v100f24^24  
v50f24v100f24v100^24f24v50f12f24v100f12v50f24f12f24v100f12v50f24v100f12v50f24v100f12v50f24v100f12  
v50f24v100f24f24f24v50f8v100f12v50f8f24v100f12v50f24v100f24v50f24v50f24v100f12v50f8  
f24v100f12v50f24v100f8f8f24f24v50f24v100f12v50f24v20v96,100f24f24f24f24f24f24f24f24  
f24f24f24f24[13v50f8v100f12v50f8f24v100f12v50f24f12f24v100f12v50f8  
f24v100f12v50f24]v50f8v100f12v50f8f24v100f12v50f24v100f12f12f12f12  
f12f12[4v50f8v100f12v50f8f24v100f12v50f24f12f24v100f12v50f8  f24v100f12v50f24]
;13

l16