#TITLE Nighty Night
#ALBUM Final Fantasy VI
#COMPOSER Nobuo Uematsu
#ARRANGED M.Akao

{1}
l16%x160%b0,50%f0,0%v50v60|0p64%e1t75&6r1  o7d8>a+8t144,40a8g8f+2  

;

l16
{2}
l16v60|0p64%e1&6r1  o6f+8g8c+8e8d2  
;

l16
{3}
l16v60|0p64%e1&6r1  
r2r4o7d4  
;

l16
{4}
l16&6r1  v60|0p64%e1r2r4o5d4  
;

l16
{5}
l16&6r1  
v60@3%r13p64%e1o7d8>a+8a8g8f+2  
;

l16
{6}
l16&4r1  v60@3%r13p64%e1o6a8r8e4d2  

;

l16
{7}
l16&2r1  v60@3%r13p64%e1o6f+4c+4>a2  
;

l16
{8}
l16v60@3%r13p64%e1o6d4>a4f+2  

;

l16