#TITLE Metamorphosis
#ALBUM Final Fantasy VI
#COMPOSER Nobuo Uematsu
#ARRANGED M.Akao

{1}
l16t80%x220%b0,100%f0,0%v50v60|0p84%e1%l1o6c32d32d+32f32f+32g+32a32b32< $1 c4%l0>f+24f24e24d+24d24c+24c4  
r4<c4>f+24f24e24d+24d24c+24c4  r4<c4>f+24f24e24d+24d24c+24c4  r4<c4>f+24f24e24d+24d24c+24c4  
a8b8<c8d+8c2  >b8<c8d8f8d2  c8d8d+8f+8d+8r4.  d8d+8f8g+8f8r2  
r8c24d24d+24f24f+24g+24a24g+24f+24f24d+24d24c24d24d+24f24f+24g+24a24g+24f+24  
f24d+24c24>b24<c24d24d+24f24f+24g+24f+24f24d+24d24c24>b24<c24d24d+24f24f+24g+24f+24f24  
d+24d24>b24<c24d24d+24f24f+24g+24a24g+24f+24f24d+24d24c24d24d+24f24f+24g+24a24g+24f+24  
f24d+24c24>b24<c24d24>g+24a24b24f24f+24g+24d24d+24f24>b24<d24f24d24f24g+24f24g+24b24  
g+24b24<d24
;1

l16
{2}
l16v60|0p80%e1o5%l1f+32g+32a32b32<c32d32d+32f32 $2 f+4%l0c24>b24a+24a24g+24g24f+4  
r4<f+4c24>b24a+24a24g+24g24f+4  r4<f+4c24>b24a+24a24g+24g24f+4  
r4<f+4c24>b24a+24a24g+24g24f+4  a8b8<c8d+8c2  >b8<c8d8f8d2  c8d8d+8f+8d+8r4.  
d8d+8f8g+8f8r2  r8c24d24d+24f24f+24g+24a24g+24f+24f24d+24d24c24d24d+24f24f+24g+24a24g+24f+24  
f24d+24c24>b24<c24d24d+24f24f+24g+24f+24f24d+24d24c24>b24<c24d24d+24f24f+24g+24f+24f24  
d+24d24>b24<c24d24d+24f24f+24g+24a24g+24f+24f24d+24d24c24d24d+24f24f+24g+24a24g+24f+24  
f24d+24c24>b24<c24d24>g+24a24b24f24f+24g+24d24e24f24>b24<d24f24d24f24g+24f24g+24b24  
g+24b24<d24
;2

l16
{3}
l16v60|0p75%e1o5%l1c32d32d+32f32f+32g+32a32b32 $3 <c4%l0r4>c4  
r4<c4r4>c4  r4<c4r4>c4  r4<c4r4>c4  r4a8g8f+2  
f8f+8b8a8g+2  g8g+8<c8>b8a+8r2  r8<d8c8>b8r2  r8a24b24<c24d24d+24f24f+24f24d+24d24c24>b24a24b24<c24d24d+24f24f+24f24d+24  
d24c24>a24g+24a24b24<c24d24d+24f24d+24d24c24>b24a24g+24a24b24<c24d24d+24f24d+24d24  
c24>b24g+24a24b24<c24d24d+24f24f+24f24d+24d24c24>b24a24b24<c24d24d+24f24f+24f24d+24  
d24c24>a24g+24a24b24f24f+24g+24d24e24f24>b24<c+24d24>g+24b24<d24>b24<d24f24d24f24g+24  
f24g+24b24
;3

l16
{4}
l16v60|0p64%e1m48,18,239r4 $5 [2[2v60|1p55%e1m48,18,239o7c4v60|2p45%e1m48,18,239o5c4v60|1p55%e1m48,18,239o6f+4  
j2,4 v60|2p45%e1m48,18,239o5c24c+24d24d+24e24f24] $4 v60|2p45%e1m48,18,239o5c24>b24a+24a24g+24g24]v60|1p55%e1m48,18,239o6d+4.d+48r48d+48r48d+48r48  
d+4v60|2p45%e1m48,18,239o5c48r48c48r48c48r48c48r48c48r48c48r48v60|1p55%e1m48,18,239o6f4.f48r48f48r48f48r48  
f4v60|2p45%e1m48,18,239o5d48r48d48r48d48r48d48r48d48r48d48r48v60|1p55%e1m48,18,239o7c8>b8a+8r2  
r8<d8c8>b8r4.c8  d8d+8f+8d+2d8  c8d4>b2<c8  d8d+8f+8d+2d8  
c8d4f4g+4b4  
;5

l16
{5}
l16r4 $7 [2[2v60|1p50%e1m48,18,239o6f+4v60|2p40%e1m48,18,239o4f+4v60|1p50%e1m48,18,239o6c4  
j2,6 v60|2p40%e1m48,18,239o4f+24g24g+24a24a+24b24] $6 v60|2p40%e1m48,18,239o4f+24f24e24d+24d24c+24]v60|1p50%e1m48,18,239o6c4.c48r48c48r48c48r48  
c4v60|2p40%e1m48,18,239o4a48r48a48r48a48r48a48r48a48r48a48r48v60|1p50%e1m48,18,239o6d4.d48r48d48r48d48r48  
d4v60|2p40%e1m48,18,239o4b48r48b48r48b48r48b48r48b48r48b48r48v60|1p50%e1m48,18,239o6d+8f+8d+8r2  
r8f8g+8f8r4.>a8  b8<c8d+8c2>b8  a8b4g+2a8  b8<c8d+8c2>b8  
a8b4<d4f4g+4  
;7

l16
{6}
l16v120|3p60%e0r4 $8 o7c4>cd+8cf+rf+8  
c24f+24<c24d+8c8.c>c8dd+f+f+r8  aard+<c4>cd+8cf+rf+8  c24f+24<c24d+8c8.c>c8dd+f+f+r8  
aard+a4.<d+8a4.  c8>b4.<f8b4.  d8c8>b8a+8r2  r8<d8c8>b8r2  
r8crcc<cr>cc<cr>cccf+  g<c>>brbb<br>bb<br>bbb<e  fbcrcc<cr>cc<cr>cccf+  
g<c>>brbb<br>bb<br>bbb<e  fb
;8

l16
{7}
l16v80|4p70%e0r4 $9 r4o4a2  
a4^4a2  a4^4a2  a4^4a2  a4a4a4a2  
a4a4a2  a8a8a8^2r8  a8a8a8^2a8  ^4a2a4  
^4a2a4  ^4a2a4  ^4a4^2  
;9

l16
{8}
l16v120r4 $12 o5[2[2|5p64%e0a4|6p64%e0a4|5p64%e0a8a8  
j2,10 |6p64%e0a4] $10 |6p64%e0a8aa][2[3|6p64%e0a|5p64%e0a8a]j2,11 |6p64%e0a24o4|7%e0p64a24a24p50g24g24p35f24  
o5] $11 o5|6p64%e0a|5p64%e0a|6p64%e0aao4|7p64%e0p95<c24p64>a48a48p35f24o5|6p64%e0a24|5p64%e0a24a24|6p64%e0a4r2  
o4|7p64%e0p95<c24p64>a48a48p35f24o5|6p64%e0a24|5p64%e0a24a24|6p64%e0a4a24o4|7p64%e0p35f24f24p95<c24p35>f24f24p64a24p35f24f24o5|6p64%e0a8  
[3|5p64%e0a4|6p64%e0a8.|5p64%e0aa8a8|6p64%e0a4  ]|5p64%e0a4|6p64%e0a8.|5p64%e0aa8a8|6p64%e0a24a24a24a24a24a24  

;12

l16