#TITLE Grand Finale #1
#ALBUM Final Fantasy VI
#COMPOSER Nobuo Uematsu
#ARRANGED M.Akao

{1}
l16t120%b0,100%f0,1%v100p64v70|0o2%a0%r8c1  ^1  ^1  ^1  

;

l16
{2}
l16p64v50|0o3%a0%r8c1  ^1  ^1  ^1  

;

l16
{3}
l16p64v40%e1k2p0,146,120|0o2%a0%r8c1  ^1  ^1  ^1  

;

l16
{4}
l16p64v40%e1k2p0,146,240|0o3%a0%r8c1  ^1  ^1  ^1  

;

l16